assets/images/More.svg

<svg width="25" height="24" viewBox="0 0 25 24" fill="none" xmlns="http://www.w3.org/2000/svg">
<g id="More">
<mask id="mask0_89_1032" style="mask-type:alpha" maskUnits="userSpaceOnUse" x="0" y="0" width="25" height="24">
<rect id="Bounding box" x="0.5" width="24" height="24" fill="#D9D9D9"/>
</mask>
<g mask="url(#mask0_89_1032)">
<path id="apps" d="M6.5 20C5.95 20 5.47917 19.8042 5.0875 19.4125C4.69583 19.0208 4.5 18.55 4.5 18C4.5 17.45 4.69583 16.9792 5.0875 16.5875C5.47917 16.1958 5.95 16 6.5 16C7.05 16 7.52083 16.1958 7.9125 16.5875C8.30417 16.9792 8.5 17.45 8.5 18C8.5 18.55 8.30417 19.0208 7.9125 19.4125C7.52083 19.8042 7.05 20 6.5 20ZM12.5 20C11.95 20 11.4792 19.8042 11.0875 19.4125C10.6958 19.0208 10.5 18.55 10.5 18C10.5 17.45 10.6958 16.9792 11.0875 16.5875C11.4792 16.1958 11.95 16 12.5 16C13.05 16 13.5208 16.1958 13.9125 16.5875C14.3042 16.9792 14.5 17.45 14.5 18C14.5 18.55 14.3042 19.0208 13.9125 19.4125C13.5208 19.8042 13.05 20 12.5 20ZM18.5 20C17.95 20 17.4792 19.8042 17.0875 19.4125C16.6958 19.0208 16.5 18.55 16.5 18C16.5 17.45 16.6958 16.9792 17.0875 16.5875C17.4792 16.1958 17.95 16 18.5 16C19.05 16 19.5208 16.1958 19.9125 16.5875C20.3042 16.9792 20.5 17.45 20.5 18C20.5 18.55 20.3042 19.0208 19.9125 19.4125C19.5208 19.8042 19.05 20 18.5 20ZM6.5 14C5.95 14 5.47917 13.8042 5.0875 13.4125C4.69583 13.0208 4.5 12.55 4.5 12C4.5 11.45 4.69583 10.9792 5.0875 10.5875C5.47917 10.1958 5.95 10 6.5 10C7.05 10 7.52083 10.1958 7.9125 10.5875C8.30417 10.9792 8.5 11.45 8.5 12C8.5 12.55 8.30417 13.0208 7.9125 13.4125C7.52083 13.8042 7.05 14 6.5 14ZM12.5 14C11.95 14 11.4792 13.8042 11.0875 13.4125C10.6958 13.0208 10.5 12.55 10.5 12C10.5 11.45 10.6958 10.9792 11.0875 10.5875C11.4792 10.1958 11.95 10 12.5 10C13.05 10 13.5208 10.1958 13.9125 10.5875C14.3042 10.9792 14.5 11.45 14.5 12C14.5 12.55 14.3042 13.0208 13.9125 13.4125C13.5208 13.8042 13.05 14 12.5 14ZM18.5 14C17.95 14 17.4792 13.8042 17.0875 13.4125C16.6958 13.0208 16.5 12.55 16.5 12C16.5 11.45 16.6958 10.9792 17.0875 10.5875C17.4792 10.1958 17.95 10 18.5 10C19.05 10 19.5208 10.1958 19.9125 10.5875C20.3042 10.9792 20.5 11.45 20.5 12C20.5 12.55 20.3042 13.0208 19.9125 13.4125C19.5208 13.8042 19.05 14 18.5 14ZM6.5 8C5.95 8 5.47917 7.80417 5.0875 7.4125C4.69583 7.02083 4.5 6.55 4.5 6C4.5 5.45 4.69583 4.97917 5.0875 4.5875C5.47917 4.19583 5.95 4 6.5 4C7.05 4 7.52083 4.19583 7.9125 4.5875C8.30417 4.97917 8.5 5.45 8.5 6C8.5 6.55 8.30417 7.02083 7.9125 7.4125C7.52083 7.80417 7.05 8 6.5 8ZM12.5 8C11.95 8 11.4792 7.80417 11.0875 7.4125C10.6958 7.02083 10.5 6.55 10.5 6C10.5 5.45 10.6958 4.97917 11.0875 4.5875C11.4792 4.19583 11.95 4 12.5 4C13.05 4 13.5208 4.19583 13.9125 4.5875C14.3042 4.97917 14.5 5.45 14.5 6C14.5 6.55 14.3042 7.02083 13.9125 7.4125C13.5208 7.80417 13.05 8 12.5 8ZM18.5 8C17.95 8 17.4792 7.80417 17.0875 7.4125C16.6958 7.02083 16.5 6.55 16.5 6C16.5 5.45 16.6958 4.97917 17.0875 4.5875C17.4792 4.19583 17.95 4 18.5 4C19.05 4 19.5208 4.19583 19.9125 4.5875C20.3042 4.97917 20.5 5.45 20.5 6C20.5 6.55 20.3042 7.02083 19.9125 7.4125C19.5208 7.80417 19.05 8 18.5 8Z" fill="#328C3C"/>
</g>
</g>
</svg>

<svg xmlns="http://www.w3.org/2000/svg" width="25" height="24" fill="none"><mask id="a" width="25" height="24" x="0" y="0" maskUnits="userSpaceOnUse" style="mask-type:alpha"><path fill="#D9D9D9" d="M.5 0h24v24H.5z"/></mask><g mask="url(#a)"><path fill="#328C3C" d="M6.5 20c-.55 0-1.02-.196-1.412-.587A1.926 1.926 0 0 1 4.5 18c0-.55.196-1.02.588-1.413A1.926 1.926 0 0 1 6.5 16c.55 0 1.02.196 1.412.587.392.392.588.863.588 1.413s-.196 1.02-.588 1.413A1.926 1.926 0 0 1 6.5 20Zm6 0c-.55 0-1.02-.196-1.412-.587A1.926 1.926 0 0 1 10.5 18c0-.55.196-1.02.588-1.413A1.926 1.926 0 0 1 12.5 16c.55 0 1.02.196 1.412.587.392.392.588.863.588 1.413s-.196 1.02-.588 1.413A1.926 1.926 0 0 1 12.5 20Zm6 0c-.55 0-1.02-.196-1.413-.587A1.926 1.926 0 0 1 16.5 18c0-.55.196-1.02.587-1.413A1.926 1.926 0 0 1 18.5 16c.55 0 1.02.196 1.413.587.391.392.587.863.587 1.413s-.196 1.02-.587 1.413A1.926 1.926 0 0 1 18.5 20Zm-12-6c-.55 0-1.02-.196-1.412-.588A1.926 1.926 0 0 1 4.5 12c0-.55.196-1.02.588-1.412A1.926 1.926 0 0 1 6.5 10c.55 0 1.02.196 1.412.588.392.391.588.862.588 1.412 0 .55-.196 1.02-.588 1.412A1.926 1.926 0 0 1 6.5 14Zm6 0c-.55 0-1.02-.196-1.412-.588A1.926 1.926 0 0 1 10.5 12c0-.55.196-1.02.588-1.412A1.926 1.926 0 0 1 12.5 10c.55 0 1.02.196 1.412.588.392.391.588.862.588 1.412 0 .55-.196 1.02-.588 1.412A1.926 1.926 0 0 1 12.5 14Zm6 0c-.55 0-1.02-.196-1.413-.588A1.926 1.926 0 0 1 16.5 12c0-.55.196-1.02.587-1.412A1.926 1.926 0 0 1 18.5 10c.55 0 1.02.196 1.413.588.391.391.587.862.587 1.412 0 .55-.196 1.02-.587 1.412A1.926 1.926 0 0 1 18.5 14Zm-12-6c-.55 0-1.02-.196-1.412-.588A1.926 1.926 0 0 1 4.5 6c0-.55.196-1.02.588-1.412A1.926 1.926 0 0 1 6.5 4c.55 0 1.02.196 1.412.588.392.391.588.862.588 1.412 0 .55-.196 1.02-.588 1.412A1.926 1.926 0 0 1 6.5 8Zm6 0c-.55 0-1.02-.196-1.412-.588A1.926 1.926 0 0 1 10.5 6c0-.55.196-1.02.588-1.412A1.926 1.926 0 0 1 12.5 4c.55 0 1.02.196 1.412.588.392.391.588.862.588 1.412 0 .55-.196 1.02-.588 1.412A1.926 1.926 0 0 1 12.5 8Zm6 0c-.55 0-1.02-.196-1.413-.588A1.926 1.926 0 0 1 16.5 6c0-.55.196-1.02.587-1.412A1.926 1.926 0 0 1 18.5 4c.55 0 1.02.196 1.413.588.391.391.587.862.587 1.412 0 .55-.196 1.02-.587 1.412A1.926 1.926 0 0 1 18.5 8Z"/></g></svg>
